outputs/icons/communication/basket_round.svg

<svg xmlns="http://www.w3.org/2000/svg" width="1200" height="1200" fill="none"><path fill="#000" d="M1043.275 501.585h-84.03L822.69 228.476c-12.605-25.21-43.07-34.664-68.28-22.059s-34.66 43.067-22.055 68.277L846.85 502.635h-495.8l114.496-228.991c12.605-25.21 2.101-55.673-22.058-68.277-25.21-12.605-55.673-2.101-68.278 22.058l-136.555 273.11h-84.033c-30.463 0-54.622 24.16-54.622 54.62v32.565c0 30.46 24.159 54.62 54.622 54.62h12.605l72.479 353.995c5.252 25.21 27.311 43.065 53.571 43.065h613.448c26.26 0 48.315-17.855 53.57-43.065l72.48-353.995h12.605c30.46 0 54.62-24.16 54.62-54.62v-32.565c-2.1-29.41-26.26-53.57-56.725-53.57M446.638 908.1c0 18.905-15.756 34.66-34.663 34.66h-17.857c-18.908 0-34.664-15.755-34.664-34.66V649.695c0-18.91 15.756-34.665 34.664-34.665h17.857c18.907 0 34.663 15.755 34.663 34.665zm196.427 0c0 18.905-15.755 34.66-34.66 34.66h-17.86c-18.905 0-34.665-15.755-34.665-34.66V649.695c0-18.91 15.76-34.665 34.665-34.665h17.86c18.905 0 34.66 15.755 34.66 34.665zm196.43 0c0 18.905-15.755 34.66-34.665 34.66h-17.855c-18.91 0-34.665-15.755-34.665-34.66V649.695c0-18.91 15.755-34.665 34.665-34.665h17.855c18.91 0 34.665 15.755 34.665 34.665z"/></svg>

<svg width="1200" height="1200" viewBox="0 0 1200 1200" fill="none" xmlns="http://www.w3.org/2000/svg"><path d="M1043.275 501.585H959.245L822.69 228.476C810.085 203.266 779.62 193.812 754.41 206.417C729.2 219.022 719.75 249.484 732.355 274.694L846.85 502.635H351.05L465.546 273.644C478.151 248.434 467.647 217.971 443.488 205.367C418.278 192.762 387.815 203.266 375.21 227.425L238.655 500.535H154.622C124.159 500.535 100 524.695 100 555.155V587.72C100 618.18 124.159 642.34 154.622 642.34H167.227L239.706 996.335C244.958 1021.545 267.017 1039.4 293.277 1039.4H906.725C932.985 1039.4 955.04 1021.545 960.295 996.335L1032.775 642.34H1045.38C1075.84 642.34 1100 618.18 1100 587.72V555.155C1097.9 525.745 1073.74 501.585 1043.275 501.585ZM446.638 908.1C446.638 927.005 430.882 942.76 411.975 942.76H394.118C375.21 942.76 359.454 927.005 359.454 908.1V649.695C359.454 630.785 375.21 615.03 394.118 615.03H411.975C430.882 615.03 446.638 630.785 446.638 649.695V908.1ZM643.065 908.1C643.065 927.005 627.31 942.76 608.405 942.76H590.545C571.64 942.76 555.88 927.005 555.88 908.1V649.695C555.88 630.785 571.64 615.03 590.545 615.03H608.405C627.31 615.03 643.065 630.785 643.065 649.695V908.1ZM839.495 908.1C839.495 927.005 823.74 942.76 804.83 942.76H786.975C768.065 942.76 752.31 927.005 752.31 908.1V649.695C752.31 630.785 768.065 615.03 786.975 615.03H804.83C823.74 615.03 839.495 630.785 839.495 649.695V908.1Z" fill="black"/></svg>
